icon-themes/breeze_svg/cmd/sc_testmode.svg

<svg viewBox="0 0 16 16" xmlns="http://www.w3.org/2000/svg">/&gt;<path d="m7 2v1.09375c-.63657.13026-1.22576.40198-1.75.75l-.84375-.84375-1.40625 1.40625.84375.84375c-.34662.52408-.5843 1.11559-.71875 1.75h-1.125v2h1.09375c.13026.63657.40199 1.22576.75 1.75l-.84375.84375 1.40625 1.40625.84375-.84375c.52408.34662 1.11559.5843 1.75.71875v1.125h2v-1.125c.35408-.073.67633-.20206 1-.34375v-1.09375c-.58909.34152-1.27007.5625-2 .5625-2.20914 0-4-1.79086-4-4s1.79086-4 4-4 4 1.79086 4 4c0 .3446227-.068304.6817191-.15625 1h1.0625 1.09375v-2h-1.09375c-.13026-.63655-.37163-1.22664-.71875-1.75l.8125-.84375-1.40625-1.40625-.84375.8125c-.52398-.34753-1.11557-.56261-1.75-.6875v-1.125zm0 4v4l3-2zm5 3.5v2.59375l-1.15625-1.15625-.6875.6875 2 2 .34375.375.34375-.375 2-2-.6875-.6875-1.15625 1.15625v-2.59375z" fill="#4d4d4d"/></svg>

<svg xmlns="http://www.w3.org/2000/svg" viewBox="0 0 16 16">
     />
 <path 
     style="fill:#4d4d4d" 
     d="M 7 2 L 7 3.09375 C 6.36343 3.22401 5.77424 3.49573 5.25 3.84375 L 4.40625 3 L 3 4.40625 L 3.84375 5.25 C 3.49713 5.77408 3.25945 6.36559 3.125 7 L 2 7 L 2 9 L 3.09375 9 C 3.22401 9.63657 3.49574 10.22576 3.84375 10.75 L 3 11.59375 L 4.40625 13 L 5.25 12.15625 C 5.77408 12.50287 6.36559 12.74055 7 12.875 L 7 14 L 9 14 L 9 12.875 C 9.35408 12.802 9.67633 12.67294 10 12.53125 L 10 11.4375 C 9.41091 11.77902 8.72993 12 8 12 C 5.79086 12 4 10.20914 4 8 C 4 5.79086 5.79086 4 8 4 C 10.20914 4 12 5.79086 12 8 C 12 8.3446227 11.931696 8.6817191 11.84375 9 L 12.90625 9 L 14 9 L 14 7 L 12.90625 7 C 12.77599 6.36345 12.53462 5.77336 12.1875 5.25 L 13 4.40625 L 11.59375 3 L 10.75 3.8125 C 10.22602 3.46497 9.63443 3.24989 9 3.125 L 9 2 L 7 2 z M 7 6 L 7 10 L 10 8 L 7 6 z M 12 9.5 L 12 12.09375 L 10.84375 10.9375 L 10.15625 11.625 L 12.15625 13.625 L 12.5 14 L 12.84375 13.625 L 14.84375 11.625 L 14.15625 10.9375 L 13 12.09375 L 13 9.5 L 12 9.5 z "
     />
 </svg>
